symbols-de/shields/motorway_7x1_z18.svg

<?xml version="1.0" encoding="UTF-8" standalone="no"?>
<svg
   xmlns:dc="http://purl.org/dc/elements/1.1/"
   xmlns:cc="http://creativecommons.org/ns#"
   xmlns:rdf="http://www.w3.org/1999/02/22-rdf-syntax-ns#"
   xmlns:svg="http://www.w3.org/2000/svg"
   xmlns="http://www.w3.org/2000/svg"
   xmlns:sodipodi="http://sodipodi.sourceforge.net/DTD/sodipodi-0.dtd"
   xmlns:inkscape="http://www.inkscape.org/namespaces/inkscape"
   width="100%"
   height="100%"
   viewBox="0 0 60.0 17.0"
   id="svg2"
   version="1.1"
   inkscape:version="0.91 r13725"
   sodipodi:docname="autobahn_7x1_z18.svg">
  <metadata
     id="metadata9">
    <rdf:RDF>
      <cc:Work
         rdf:about="">
        <dc:format>image/svg+xml</dc:format>
        <dc:type
           rdf:resource="http://purl.org/dc/dcmitype/StillImage" />
        <dc:title></dc:title>
      </cc:Work>
    </rdf:RDF>
  </metadata>
  <defs
     id="defs7" />
  <sodipodi:namedview
     pagecolor="#ffffff"
     bordercolor="#666666"
     borderopacity="1"
     objecttolerance="10"
     gridtolerance="10"
     guidetolerance="10"
     inkscape:pageopacity="0"
     inkscape:pageshadow="2"
     inkscape:window-width="973"
     inkscape:window-height="599"
     id="namedview5"
     showgrid="false"
     inkscape:zoom="5.8833333"
     inkscape:cx="30"
     inkscape:cy="8.5"
     inkscape:window-x="226"
     inkscape:window-y="325"
     inkscape:window-maximized="0"
     inkscape:current-layer="svg2" />
  <path
     inkscape:connector-curvature="0"
     style="fill:#365eaf;fill-opacity:1;stroke:#0528a2;stroke-width:1;stroke-miterlimit:4;stroke-dasharray:none;stroke-opacity:1"
     id="path6"
     d="m 0.5,8.500039 0,-5.527281 Q 0.5,2.681846 1.4516114,2.536395 L 29.365585,0.514576 q 0,-0.01458 0.634413,-0.01458 0.634407,0 0.634407,0.01458 l 27.91398,2.021819 Q 59.5,2.681846 59.5,2.972758 l 0,11.054565 q 0,0.290913 -0.951615,0.436364 L 30.634405,16.4855 q 0,0.0145 -0.634407,0.0145 -0.634413,0 -0.634413,-0.0145 L 1.4516114,14.463687 Q 0.5,14.318236 0.5,14.027323 Z" />
</svg>

<?xml version="1.0" encoding="UTF-8"?>
<svg xmlns="http://www.w3.org/2000/svg" xmlns:xlink="http://www.w3.org/1999/xlink" width="58pt" height="21pt" viewBox="0 0 58 21" version="1.1">
<g id="surface1">
<path style="fill-rule:nonzero;fill:rgb(21.176471%,36.862745%,68.627451%);fill-opacity:1;stroke-width:1;stroke-linecap:butt;stroke-linejoin:miter;stroke:rgb(1.960784%,15.686275%,63.529412%);stroke-opacity:1;stroke-miterlimit:4;" d="M 0.501078 8.5 L 0.501078 2.97247 C 0.501078 2.779576 0.816272 2.634115 1.4507 2.536086 L 29.365571 0.515439 C 29.365571 0.505952 29.5757 0.499628 30 0.499628 C 30.4243 0.499628 30.634429 0.505952 30.634429 0.515439 L 58.5493 2.536086 C 59.183728 2.634115 59.498922 2.779576 59.498922 2.97247 L 59.498922 14.02753 C 59.498922 14.220424 59.183728 14.365885 58.5493 14.463914 L 30.634429 16.484561 C 30.634429 16.494048 30.4243 16.500372 30 16.500372 C 29.5757 16.500372 29.365571 16.494048 29.365571 16.484561 L 1.4507 14.463914 C 0.816272 14.365885 0.501078 14.220424 0.501078 14.02753 Z M 0.501078 8.5 " transform="matrix(0.966667,0,0,1.235294,0,0)"/>
</g>
</svg>
